X:332
T:Honorable Mrs. Maule
R:Reel
C:R. Macintosh
B:The Athole Collection
M:C|
L:1/8
K:A
e|a2ed cAec|B>cde fBbg|a2ed cAec|dfed cAA:|
e|c/B/A EA cAec|Bcde fBed|c/B/A EA cAec|dBed cAAe|c/B/A EA cAec|
B>cde fBbB|cefd eabg|afed cAA||

